public/assets/icons/mongodb.svg

<svg width="48" height="48" viewBox="0 0 256 256" fill="none"
  xmlns="http://www.w3.org/2000/svg"
  xmlns:xlink="http://www.w3.org/1999/xlink" version="1.1">

  <g transform="translate(0, 0)">
    <svg xmlns="http://www.w3.org/2000/svg" width="256" height="256" fill="none" viewBox="0 0 256 256">
      <rect width="256" height="256" fill="#023430" rx="60"/>
      <path fill="#10AA50" d="M171.173 107.591C160.636 61.1097 138.676 48.7357 133.074 39.9886C130.764 36.1353 128.717 32.1299 126.949 28C126.653 32.1292 126.109 34.7307 122.599 37.862C115.552 44.1454 85.6217 68.5354 83.1028 121.348C80.756 170.59 119.303 200.953 124.395 204.092C128.311 206.019 133.08 204.133 135.407 202.364C153.988 189.612 179.376 155.614 171.193 107.591"/>
      <path fill="#B8C4C2" d="M128.545 177.871C127.575 190.059 126.88 197.141 124.416 204.106C124.416 204.106 126.033 215.709 127.169 228H131.188C132.147 219.345 133.61 210.753 135.572 202.268C130.369 199.708 128.745 188.566 128.545 177.871Z"/>
      <path fill="#12924F" d="M135.565 202.275C130.307 199.846 128.786 188.469 128.552 177.871C129.852 160.388 130.231 142.849 129.688 125.326C129.412 116.132 129.818 40.1676 127.423 29.0461C129.062 32.8129 130.949 36.4662 133.074 39.9818C138.676 48.7358 160.643 61.1097 171.173 107.591C179.376 155.532 154.126 189.44 135.565 202.275Z"/>
    </svg>
  </g>

</svg>

<svg xmlns="http://www.w3.org/2000/svg" width="48" height="48" fill="none" viewBox="0 0 256 256"><svg xmlns="http://www.w3.org/2000/svg" width="256" height="256" viewBox="0 0 256 256"><rect width="256" height="256" fill="#023430" rx="60"/><path fill="#10AA50" d="M171.173 107.591c-10.537-46.481-32.497-58.855-38.099-67.602A99 99 0 0 1 126.949 28c-.296 4.13-.84 6.73-4.35 9.862-7.047 6.283-36.977 30.673-39.496 83.486-2.347 49.242 36.2 79.605 41.292 82.744 3.916 1.927 8.685.041 11.012-1.728 18.581-12.752 43.969-46.75 35.786-94.773"/><path fill="#B8C4C2" d="M128.545 177.871c-.97 12.188-1.665 19.27-4.129 26.235 0 0 1.617 11.603 2.753 23.894h4.019a224 224 0 0 1 4.384-25.732c-5.203-2.56-6.827-13.702-7.027-24.397"/><path fill="#12924F" d="M135.565 202.275c-5.258-2.429-6.779-13.806-7.013-24.404a500 500 0 0 0 1.136-52.545c-.276-9.194.13-85.158-2.265-96.28a92 92 0 0 0 5.651 10.936c5.602 8.754 27.569 21.128 38.099 67.609 8.203 47.941-17.047 81.849-35.608 94.684"/></svg></svg>
